static/img/kroki/4b6947ca80073a6d81883bf1520599c8.svg

<?xml version="1.0" encoding="us-ascii" standalone="no"?><svg xmlns="http://www.w3.org/2000/svg" xmlns:xlink="http://www.w3.org/1999/xlink" contentStyleType="text/css" height="252px" preserveAspectRatio="none" style="width:599px;height:252px;" version="1.1" viewBox="0 0 599 252" width="599px" zoomAndPan="magnify"><defs/><g><!--class azure_availability_set--><g id="elem_azure_availability_set"><rect codeLine="22" fill="#3D176E" height="39.7891" id="azure_availability_set" rx="2.5" ry="2.5" style="stroke:#000D19;stroke-width:0.5;" width="223" x="121" y="7"/><ellipse cx="136" cy="26.8945" fill="#ADD1B2" rx="11" ry="11" style="stroke:#181818;stroke-width:1.0;"/><path d="M138.9688,32.5352 Q138.3906,32.832 137.75,32.9727 Q137.1094,33.1289 136.4063,33.1289 Q133.9063,33.1289 132.5781,31.4883 Q131.2656,29.832 131.2656,26.707 Q131.2656,23.582 132.5781,21.9258 Q133.9063,20.2695 136.4063,20.2695 Q137.1094,20.2695 137.75,20.4258 Q138.4063,20.582 138.9688,20.8789 L138.9688,23.5977 Q138.3438,23.0195 137.75,22.7539 Q137.1563,22.4727 136.5313,22.4727 Q135.1875,22.4727 134.5,23.5508 Q133.8125,24.6133 133.8125,26.707 Q133.8125,28.8008 134.5,29.8789 Q135.1875,30.9414 136.5313,30.9414 Q137.1563,30.9414 137.75,30.6758 Q138.3438,30.3945 138.9688,29.8164 L138.9688,32.5352 Z " fill="#000000"/><text fill="#D9B8FF" font-family="Helvetica" font-size="17" lengthAdjust="spacing" textLength="181" x="155" y="32.7798">azure_availability_set</text></g><!--class azure_proximity_placement_group--><g id="elem_azure_proximity_placement_group"><rect codeLine="24" fill="#3D176E" height="39.7891" id="azure_proximity_placement_group" rx="2.5" ry="2.5" style="stroke:#000D19;stroke-width:0.5;" width="332" x="176.5" y="106.79"/><ellipse cx="191.5" cy="126.6845" fill="#ADD1B2" rx="11" ry="11" style="stroke:#181818;stroke-width:1.0;"/><path d="M194.4688,132.3252 Q193.8906,132.622 193.25,132.7627 Q192.6094,132.9189 191.9063,132.9189 Q189.4063,132.9189 188.0781,131.2783 Q186.7656,129.622 186.7656,126.497 Q186.7656,123.372 188.0781,121.7158 Q189.4063,120.0595 191.9063,120.0595 Q192.6094,120.0595 193.25,120.2158 Q193.9063,120.372 194.4688,120.6689 L194.4688,123.3877 Q193.8438,122.8095 193.25,122.5439 Q192.6563,122.2627 192.0313,122.2627 Q190.6875,122.2627 190,123.3408 Q189.3125,124.4033 189.3125,126.497 Q189.3125,128.5908 190,129.6689 Q190.6875,130.7314 192.0313,130.7314 Q192.6563,130.7314 193.25,130.4658 Q193.8438,130.1845 194.4688,129.6064 L194.4688,132.3252 Z " fill="#000000"/><text fill="#D9B8FF" font-family="Helvetica" font-size="17" lengthAdjust="spacing" textLength="290" x="210.5" y="132.5698">azure_proximity_placement_group</text></g><!--class azure_virtual_machine--><g id="elem_azure_virtual_machine"><rect codeLine="26" fill="#3D176E" height="39.7891" id="azure_virtual_machine" rx="2.5" ry="2.5" style="stroke:#000D19;stroke-width:0.5;" width="233" x="7" y="206.58"/><ellipse cx="22" cy="226.4745" fill="#ADD1B2" rx="11" ry="11" style="stroke:#181818;stroke-width:1.0;"/><path d="M24.9688,232.1152 Q24.3906,232.412 23.75,232.5527 Q23.1094,232.7089 22.4063,232.7089 Q19.9063,232.7089 18.5781,231.0683 Q17.2656,229.412 17.2656,226.287 Q17.2656,223.162 18.5781,221.5058 Q19.9063,219.8495 22.4063,219.8495 Q23.1094,219.8495 23.75,220.0058 Q24.4063,220.162 24.9688,220.4589 L24.9688,223.1777 Q24.3438,222.5995 23.75,222.3339 Q23.1563,222.0527 22.5313,222.0527 Q21.1875,222.0527 20.5,223.1308 Q19.8125,224.1933 19.8125,226.287 Q19.8125,228.3808 20.5,229.4589 Q21.1875,230.5214 22.5313,230.5214 Q23.1563,230.5214 23.75,230.2558 Q24.3438,229.9745 24.9688,229.3964 L24.9688,232.1152 Z " fill="#000000"/><text fill="#D9B8FF" font-family="Helvetica" font-size="17" lengthAdjust="spacing" textLength="191" x="41" y="232.3598">azure_virtual_machine</text></g><!--class azure_virtual_machine_scale_set--><g id="elem_azure_virtual_machine_scale_set"><rect codeLine="28" fill="#3D176E" height="39.7891" id="azure_virtual_machine_scale_set" rx="2.5" ry="2.5" style="stroke:#000D19;stroke-width:0.5;" width="317" x="275" y="206.58"/><ellipse cx="290" cy="226.4745" fill="#ADD1B2" rx="11" ry="11" style="stroke:#181818;stroke-width:1.0;"/><path d="M292.9688,232.1152 Q292.3906,232.412 291.75,232.5527 Q291.1094,232.7089 290.4063,232.7089 Q287.9063,232.7089 286.5781,231.0683 Q285.2656,229.412 285.2656,226.287 Q285.2656,223.162 286.5781,221.5058 Q287.9063,219.8495 290.4063,219.8495 Q291.1094,219.8495 291.75,220.0058 Q292.4063,220.162 292.9688,220.4589 L292.9688,223.1777 Q292.3438,222.5995 291.75,222.3339 Q291.1563,222.0527 290.5313,222.0527 Q289.1875,222.0527 288.5,223.1308 Q287.8125,224.1933 287.8125,226.287 Q287.8125,228.3808 288.5,229.4589 Q289.1875,230.5214 290.5313,230.5214 Q291.1563,230.5214 291.75,230.2558 Q292.3438,229.9745 292.9688,229.3964 L292.9688,232.1152 Z " fill="#000000"/><text fill="#D9B8FF" font-family="Helvetica" font-size="17" lengthAdjust="spacing" textLength="275" x="309" y="232.3598">azure_virtual_machine_scale_set</text></g><!--link azure_availability_set to azure_proximity_placement_group--><g id="link_azure_availability_set_azure_proximity_placement_group"><path codeLine="30" d="M254.23,47.22 C273.52,64.36 297.0568,85.2824 316.3268,102.4224 " fill="none" id="azure_availability_set-to-azure_proximity_placement_group" style="stroke:#1A83AF;stroke-width:2.0;"/><polygon fill="#1A83AF" points="320.81,106.41,316.7437,97.4398,317.074,103.087,311.4268,103.4173,320.81,106.41" style="stroke:#1A83AF;stroke-width:2.0;"/></g><!--link azure_availability_set to azure_virtual_machine--><g id="link_azure_availability_set_azure_virtual_machine"><path codeLine="31" d="M209.8,47.22 C193.7,62.04 172.68,83.8 159.5,106.79 C140.97,139.11 132.1367,176.0492 127.6467,200.4292 " fill="none" id="azure_availability_set-to-azure_virtual_machine" style="stroke:#1A83AF;stroke-width:2.0;"/><polygon fill="#1A83AF" points="126.56,206.33,132.1239,198.2033,127.4656,201.4127,124.2562,196.7544,126.56,206.33" style="stroke:#1A83AF;stroke-width:2.0;"/></g><!--link azure_proximity_placement_group to azure_virtual_machine--><g id="link_azure_proximity_placement_group_azure_virtual_machine"><path codeLine="32" d="M299.23,147.01 C260.84,164.15 210.518,186.6123 172.158,203.7523 " fill="none" id="azure_proximity_placement_group-to-azure_virtual_machine" style="stroke:#1A83AF;stroke-width:2.0;"/><polygon fill="#1A83AF" points="166.68,206.2,176.5288,206.1805,171.245,204.1603,173.2653,198.8764,166.68,206.2" style="stroke:#1A83AF;stroke-width:2.0;"/></g><!--link azure_proximity_placement_group to azure_virtual_machine_scale_set--><g id="link_azure_proximity_placement_group_azure_virtual_machine_scale_set"><path codeLine="33" d="M360.48,147.01 C376.43,164.15 395.534,184.6663 411.474,201.8063 " fill="none" id="azure_proximity_placement_group-to-azure_virtual_machine_scale_set" style="stroke:#1A83AF;stroke-width:2.0;"/><polygon fill="#1A83AF" points="415.56,206.2,412.36,196.8855,412.155,202.5386,406.5018,202.3335,415.56,206.2" style="stroke:#1A83AF;stroke-width:2.0;"/></g><!--SRC=[lP9DJy9048Rl_8fDE9DGYG8Naq92z4ACU3EccUvEwORzQ6Qt81Z_krGKbrPel7ZTzyaxpqmsbm8Pwi9lcKQT8hcEMqbJ085cCP7TJAsonBfP1jbWM0zdrlXMO0uQsHsgDNh9eKuyvPAl33h7he9e0dor95iQSQZt1CRj8pG-eAOAd8kz9vcM7WCPCKv7MLOdwwNTWOY6DzZ0B0caBwJVxujeN4TQHrtS-qWiv0vP51vjRZqsD1iZFgcBbXKHI3OM_SxFEZw04D8isNNmzdXm8eDqyhx8GTXDHMUWN3Z6UIIqVblWjB4LZaSY6_uAtv-3UNKv1hkIC84rI0MfLD9l4uUUlNNUJu22xAlKLLeeuAZtVoUfIei6kPRaIr291fvBWsrvuZWeFCuyezDxxaRnQ13FNdgtRKP_wAYvTDfs_PUAdujy0000]--></g></svg>

<svg xmlns="http://www.w3.org/2000/svg" width="599" height="252" viewBox="0 0 599 252"><rect width="223" height="39.789" x="121" y="7" fill="#3D176E" rx="2.5" ry="2.5" style="stroke:#000d19;stroke-width:.5"/><circle cx="136" cy="26.895" r="11" fill="#ADD1B2" style="stroke:#181818;stroke-width:1"/><path d="M138.969 32.535q-.578.297-1.219.438-.64.156-1.344.156-2.5 0-3.828-1.64-1.312-1.657-1.312-4.782t1.312-4.781q1.328-1.656 3.828-1.656.703 0 1.344.156.656.156 1.219.453v2.719q-.625-.578-1.219-.844-.594-.281-1.219-.281-1.344 0-2.031 1.078-.687 1.062-.687 3.156t.687 3.172q.688 1.062 2.031 1.062.625 0 1.219-.265.594-.281 1.219-.86z"/><text x="155" y="32.78" fill="#D9B8FF" font-family="Helvetica" font-size="17" textLength="181">azure_availability_set</text><rect width="332" height="39.789" x="176.5" y="106.79" fill="#3D176E" rx="2.5" ry="2.5" style="stroke:#000d19;stroke-width:.5"/><circle cx="191.5" cy="126.684" r="11" fill="#ADD1B2" style="stroke:#181818;stroke-width:1"/><path d="M194.469 132.325q-.578.297-1.219.438-.64.156-1.344.156-2.5 0-3.828-1.64-1.312-1.657-1.312-4.782t1.312-4.781q1.328-1.656 3.828-1.656.703 0 1.344.156.656.156 1.219.453v2.719q-.625-.579-1.219-.844-.594-.281-1.219-.281-1.344 0-2.031 1.078-.687 1.062-.687 3.156t.687 3.172q.688 1.062 2.031 1.062.625 0 1.219-.265.594-.281 1.219-.86z"/><text x="210.5" y="132.57" fill="#D9B8FF" font-family="Helvetica" font-size="17" textLength="290">azure_proximity_placement_group</text><rect width="233" height="39.789" x="7" y="206.58" fill="#3D176E" rx="2.5" ry="2.5" style="stroke:#000d19;stroke-width:.5"/><circle cx="22" cy="226.475" r="11" fill="#ADD1B2" style="stroke:#181818;stroke-width:1"/><path d="M24.969 232.115q-.578.297-1.219.438-.64.156-1.344.156-2.5 0-3.828-1.64-1.312-1.657-1.312-4.782t1.312-4.781q1.328-1.656 3.828-1.656.703 0 1.344.156.656.156 1.219.453v2.719q-.625-.578-1.219-.844-.594-.281-1.219-.281-1.343 0-2.031 1.078-.687 1.062-.687 3.156t.687 3.172q.688 1.062 2.031 1.062.625 0 1.219-.265.594-.281 1.219-.86z"/><text x="41" y="232.36" fill="#D9B8FF" font-family="Helvetica" font-size="17" textLength="191">azure_virtual_machine</text><rect width="317" height="39.789" x="275" y="206.58" fill="#3D176E" rx="2.5" ry="2.5" style="stroke:#000d19;stroke-width:.5"/><circle cx="290" cy="226.475" r="11" fill="#ADD1B2" style="stroke:#181818;stroke-width:1"/><path d="M292.969 232.115q-.578.297-1.219.438-.64.156-1.344.156-2.5 0-3.828-1.64-1.312-1.657-1.312-4.782t1.312-4.781q1.328-1.656 3.828-1.656.703 0 1.344.156.656.156 1.219.453v2.719q-.625-.578-1.219-.844-.594-.281-1.219-.281-1.344 0-2.031 1.078-.687 1.062-.687 3.156t.687 3.172q.688 1.062 2.031 1.062.625 0 1.219-.265.594-.281 1.219-.86z"/><text x="309" y="232.36" fill="#D9B8FF" font-family="Helvetica" font-size="17" textLength="275">azure_virtual_machine_scale_set</text><path fill="none" d="M254.23 47.22c19.29 17.14 42.827 38.062 62.097 55.202" style="stroke:#1a83af;stroke-width:2"/><path fill="#1A83AF" d="m320.81 106.41-4.066-8.97.33 5.647-5.647.33z" style="stroke:#1a83af;stroke-width:2"/><path fill="none" d="M209.8 47.22c-16.1 14.82-37.12 36.58-50.3 59.57-18.53 32.32-27.363 69.26-31.853 93.64" style="stroke:#1a83af;stroke-width:2"/><path fill="#1A83AF" d="m126.56 206.33 5.564-8.127-4.658 3.21-3.21-4.659z" style="stroke:#1a83af;stroke-width:2"/><path fill="none" d="M299.23 147.01c-38.39 17.14-88.712 39.602-127.072 56.742" style="stroke:#1a83af;stroke-width:2"/><path fill="#1A83AF" d="m166.68 206.2 9.849-.02-5.284-2.02 2.02-5.284z" style="stroke:#1a83af;stroke-width:2"/><path fill="none" d="M360.48 147.01c15.95 17.14 35.054 37.656 50.994 54.796" style="stroke:#1a83af;stroke-width:2"/><path fill="#1A83AF" d="m415.56 206.2-3.2-9.314-.205 5.653-5.653-.206z" style="stroke:#1a83af;stroke-width:2"/></svg>
